src/assets/img/icon_3.svg

<svg width="66" height="53" viewBox="0 0 66 53" fill="none" xmlns="http://www.w3.org/2000/svg">
<path d="M30.8166 17.1997L31.0124 16.7396L30.8166 17.1997ZM15.0136 28.543L14.517 28.6016L15.0136 28.543ZM33.0529 17.1997L33.1686 16.7133C33.0925 16.6951 33.0132 16.6951 32.9371 16.7133L33.0529 17.1997ZM35.2892 17.1996L35.4849 17.6597L35.2892 17.1996ZM51.0922 28.5429L51.5887 28.6015L51.0922 28.5429ZM7.44227 7.8866L7.52549 8.37962L7.44227 7.8866ZM8.31433 7.02812L7.82175 6.94232L8.31433 7.02812ZM2.17046 10.8488L2.08723 11.3418H2.08723L2.17046 10.8488ZM2.17046 8.77647L2.08723 8.28344L2.17046 8.77647ZM8.31433 12.5971L7.82175 12.6829L8.31433 12.5971ZM7.44227 11.7386L7.52549 11.2456L7.44227 11.7386ZM11.3234 17.7868L10.8308 17.701L11.3234 17.7868ZM9.21829 17.7868L9.71087 17.701L9.21829 17.7868ZM13.0994 11.7386L13.0162 11.2456L13.0994 11.7386ZM12.2273 12.5971L12.7199 12.6829L12.2273 12.5971ZM18.3712 8.77647L18.288 9.26949L18.3712 8.77647ZM18.3712 10.8488L18.4544 11.3418L18.3712 10.8488ZM12.2273 7.02812L12.7199 6.94232V6.94232L12.2273 7.02812ZM13.0994 7.8866L13.1826 7.39357L13.0994 7.8866ZM11.3234 1.83845L10.8308 1.92425L11.3234 1.83845ZM9.21829 1.83845L9.71087 1.92425L9.21829 1.83845ZM31.0124 16.7396C25.5265 14.4056 21.1007 15.0045 18.1768 17.4614C15.2735 19.9008 13.9815 24.066 14.517 28.6016L15.5101 28.4843C15.0021 24.181 16.2445 20.3911 18.8201 18.227C21.3751 16.0802 25.3726 15.4269 30.6209 17.6598L31.0124 16.7396ZM14.517 28.6016C14.9821 32.5406 16.4177 37.2098 18.5385 40.9072C20.6372 44.5659 23.5186 47.4575 26.9404 47.4575V46.4575C24.1006 46.4575 21.4765 44.0193 19.406 40.4096C17.3577 36.8386 15.9607 32.3005 15.5101 28.4843L14.517 28.6016ZM26.9404 47.4575C28.1812 47.4575 29.1838 47.3044 30.1337 47.1569C31.0858 47.0091 31.9786 46.8682 33.0529 46.8682V45.8682C31.8909 45.8682 30.9261 46.0219 29.9803 46.1688C29.0324 46.3159 28.0969 46.4575 26.9404 46.4575V47.4575ZM30.6209 17.6598C31.145 17.8828 31.8131 17.8691 32.2818 17.8255C32.5291 17.8025 32.7482 17.7682 32.9055 17.7396C32.9844 17.7253 33.0485 17.7123 33.0936 17.7028C33.1162 17.698 33.1341 17.694 33.1467 17.6911C33.1531 17.6897 33.1581 17.6886 33.1618 17.6877C33.1636 17.6873 33.1651 17.6869 33.1662 17.6867C33.1668 17.6865 33.1673 17.6864 33.1677 17.6863C33.1679 17.6863 33.1681 17.6862 33.1682 17.6862C33.1683 17.6862 33.1684 17.6861 33.1685 17.6861C33.1685 17.6861 33.1686 17.6861 33.0529 17.1997C32.9371 16.7133 32.9372 16.7132 32.9373 16.7132C32.9373 16.7132 32.9374 16.7132 32.9374 16.7132C32.9375 16.7132 32.9375 16.7132 32.9376 16.7132C32.9376 16.7131 32.9376 16.7132 32.9375 16.7132C32.9372 16.7132 32.9366 16.7134 32.9357 16.7136C32.9339 16.714 32.9308 16.7147 32.9265 16.7157C32.9177 16.7177 32.904 16.7207 32.8858 16.7246C32.8493 16.7323 32.7951 16.7433 32.727 16.7557C32.5904 16.7805 32.4008 16.8101 32.1893 16.8298C31.7404 16.8715 31.2903 16.8578 31.0124 16.7396L30.6209 17.6598ZM35.4849 17.6597C40.7332 15.4269 44.7307 16.0801 47.2857 18.2269C49.8613 20.3911 51.1037 24.181 50.5956 28.4843L51.5887 28.6015C52.1243 24.0659 50.8323 19.9008 47.929 17.4613C45.0051 15.0045 40.5793 14.4056 35.0934 16.7395L35.4849 17.6597ZM50.5956 28.4843C50.1451 32.3005 48.7481 36.8385 46.6998 40.4096C44.6293 44.0193 42.0051 46.4575 39.1654 46.4575V47.4575C42.5872 47.4575 45.4686 44.5659 47.5672 40.9071C49.688 37.2097 51.1237 32.5405 51.5887 28.6015L50.5956 28.4843ZM39.1654 46.4575C38.0089 46.4575 37.0734 46.3159 36.1255 46.1688C35.1796 46.0219 34.2148 45.8682 33.0529 45.8682V46.8682C34.1272 46.8682 35.02 47.0091 35.9721 47.1569C36.922 47.3044 37.9246 47.4575 39.1654 47.4575V46.4575ZM35.0934 16.7395C34.8154 16.8578 34.3654 16.8715 33.9165 16.8298C33.705 16.8101 33.5154 16.7805 33.3787 16.7557C33.3107 16.7433 33.2564 16.7323 33.22 16.7246C33.2018 16.7207 33.188 16.7177 33.1793 16.7157C33.1749 16.7147 33.1718 16.714 33.17 16.7136C33.1691 16.7134 33.1686 16.7132 33.1683 16.7132C33.1682 16.7132 33.1682 16.7131 33.1682 16.7132C33.1682 16.7132 33.1683 16.7132 33.1684 16.7132C33.1684 16.7132 33.1685 16.7132 33.1685 16.7132C33.1685 16.7132 33.1686 16.7133 33.0529 17.1997C32.9372 17.6861 32.9372 17.6861 32.9373 17.6861C32.9374 17.6861 32.9375 17.6862 32.9376 17.6862C32.9377 17.6862 32.9379 17.6863 32.9381 17.6863C32.9385 17.6864 32.939 17.6865 32.9395 17.6867C32.9407 17.6869 32.9422 17.6873 32.944 17.6877C32.9477 17.6886 32.9527 17.6897 32.9591 17.6911C32.9717 17.694 32.9896 17.698 33.0122 17.7028C33.0573 17.7123 33.1214 17.7253 33.2003 17.7396C33.3576 17.7682 33.5767 17.8025 33.824 17.8255C34.2927 17.8691 34.9608 17.8827 35.4849 17.6597L35.0934 16.7395ZM33.5463 17.7917C33.419 17.0122 33.3813 16.1978 33.2795 15.2434C33.1803 14.3143 33.0235 13.3127 32.6581 12.2862C31.9183 10.2082 30.3533 8.11078 26.8848 6.21981L26.4061 7.0978C29.6914 8.8889 31.0704 10.8082 31.716 12.6216C32.0432 13.5407 32.1895 14.4533 32.2851 15.3495C32.3781 16.2205 32.427 17.1425 32.5594 17.953L33.5463 17.7917ZM10.8308 1.92425L11.7348 7.11392L12.7199 6.94232L11.816 1.75265L10.8308 1.92425ZM13.0162 8.37962L18.288 9.26949L18.4544 8.28344L13.1826 7.39357L13.0162 8.37962ZM18.288 10.3557L13.0162 11.2456L13.1826 12.2317L18.4544 11.3418L18.288 10.3557ZM11.7348 12.5113L10.8308 17.701L11.816 17.8726L12.7199 12.6829L11.7348 12.5113ZM9.71087 17.701L8.80692 12.5113L7.82175 12.6829L8.7257 17.8726L9.71087 17.701ZM7.52549 11.2456L2.25368 10.3557L2.08723 11.3418L7.35904 12.2317L7.52549 11.2456ZM2.25368 9.26949L7.52549 8.37962L7.35904 7.39357L2.08723 8.28344L2.25368 9.26949ZM8.80692 7.11392L9.71087 1.92425L8.7257 1.75265L7.82175 6.94232L8.80692 7.11392ZM7.52549 8.37962C8.17635 8.26976 8.69332 7.76607 8.80692 7.11392L7.82175 6.94232C7.78235 7.16852 7.60044 7.35283 7.35904 7.39357L7.52549 8.37962ZM2.25368 10.3557C1.62614 10.2498 1.62614 9.37542 2.25368 9.26949L2.08723 8.28344C0.348291 8.57697 0.348289 11.0483 2.08723 11.3418L2.25368 10.3557ZM8.80692 12.5113C8.69332 11.8592 8.17635 11.3555 7.52549 11.2456L7.35904 12.2317C7.60044 12.2724 7.78235 12.4567 7.82175 12.6829L8.80692 12.5113ZM10.8308 17.701C10.7241 18.3135 9.81756 18.3135 9.71087 17.701L8.7257 17.8726C9.02479 19.5897 11.5169 19.5897 11.816 17.8726L10.8308 17.701ZM13.0162 11.2456C12.3653 11.3555 11.8483 11.8592 11.7348 12.5113L12.7199 12.6829C12.7593 12.4567 12.9412 12.2724 13.1826 12.2317L13.0162 11.2456ZM18.288 9.26949C18.9155 9.37542 18.9155 10.2498 18.288 10.3557L18.4544 11.3418C20.1934 11.0483 20.1934 8.57697 18.4544 8.28344L18.288 9.26949ZM11.7348 7.11392C11.8483 7.76607 12.3653 8.26976 13.0162 8.37962L13.1826 7.39357C12.9412 7.35283 12.7593 7.16852 12.7199 6.94232L11.7348 7.11392ZM11.816 1.75265C11.5169 0.0355772 9.02479 0.0355751 8.7257 1.75265L9.71087 1.92425C9.81756 1.31171 10.7241 1.31171 10.8308 1.92425L11.816 1.75265ZM53.9405 6.65881V8.97565H54.9405V6.65881H53.9405ZM53.2637 9.692H50.8514V10.692H53.2637V9.692ZM55.6172 10.692H57.9708V9.692H55.6172V10.692ZM53.9405 11.2925V13.6673H54.9405V11.2925H53.9405ZM4.10474 33.291V35.6078H5.10474V33.291H4.10474ZM3.42798 36.3242H1.01562V37.3242H3.42798V36.3242ZM5.7815 37.3242H8.13502V36.3242H5.7815V37.3242ZM4.10474 37.9247V40.2994H5.10474V37.9247H4.10474ZM1.01562 52.7138H65.8021V51.7138H1.01562V52.7138Z" fill="white"/>
</svg>

<svg xmlns="http://www.w3.org/2000/svg" fill="none" viewBox="0 0 66 53"><path fill="#fff" d="M30.817 17.2l.195-.46-.195.46zM15.014 28.543l-.497.059.497-.059zM33.053 17.2l.116-.487a.498.498 0 0 0-.232 0l.116.487zm2.236 0l.196.46-.196-.46zm15.803 11.343l.497.059-.497-.06zM7.442 7.887l.083.493-.083-.493zm.872-.859l-.492-.086.492.086zm-6.144 3.82l-.083.494.083-.493zm0-2.072l-.083-.493.083.493zm6.144 3.821l-.492.086.492-.086zm-.872-.858l.083-.493-.083.493zm3.881 6.048l-.492-.086.492.086zm-2.105 0l.493-.086-.493.086zm3.881-6.048l-.083-.493.083.493zm-.872.858l.493.086-.493-.086zm6.144-3.82l-.083.492.083-.493zm0 2.072l.083.493-.083-.493zm-6.144-3.82l.493-.087-.493.086zm.872.858l.084-.493-.084.493zm-1.776-6.049l-.492.086.492-.086zm-2.105 0l.493.086-.493-.086zM31.012 16.74c-5.486-2.334-9.911-1.735-12.835.721-2.903 2.44-4.195 6.605-3.66 11.14l.993-.117c-.508-4.303.734-8.093 3.31-10.257 2.555-2.147 6.553-2.8 11.8-.567l.392-.92zM14.517 28.602c.465 3.939 1.9 8.608 4.021 12.305 2.1 3.659 4.98 6.55 8.402 6.55v-1c-2.84 0-5.463-2.438-7.534-6.047-2.048-3.571-3.445-8.11-3.896-11.926l-.993.118zM26.94 47.458c1.241 0 2.244-.154 3.194-.301.952-.148 1.845-.289 2.919-.289v-1c-1.162 0-2.127.154-3.073.3-.948.148-1.883.29-3.04.29v1zm3.68-29.798c.525.223 1.193.21 1.662.166a7.333 7.333 0 0 0 .88-.138l.004-.001h.002l-.115-.487-.116-.487h-.001a.994.994 0 0 0-.05.012 5.844 5.844 0 0 1-.697.105c-.449.042-.899.028-1.177-.09l-.391.92zm4.865 0c5.248-2.233 9.246-1.58 11.8.567 2.576 2.164 3.819 5.954 3.31 10.257l.994.117c.535-4.535-.757-8.7-3.66-11.14-2.924-2.456-7.35-3.055-12.836-.721l.392.92zm15.11 10.824c-.45 3.816-1.847 8.355-3.895 11.926-2.07 3.61-4.695 6.048-7.535 6.048v1c3.422 0 6.304-2.892 8.402-6.55 2.121-3.698 3.557-8.367 4.022-12.306l-.993-.118zm-11.43 17.974c-1.156 0-2.092-.142-3.04-.29-.945-.146-1.91-.3-3.072-.3v1c1.074 0 1.967.141 2.92.289.949.147 1.952.3 3.192.3v-1zM35.093 16.74c-.278.118-.728.132-1.177.09a6.374 6.374 0 0 1-.746-.116h-.002l-.115.486-.116.486h.003l.004.002a.745.745 0 0 0 .068.015c.045.01.11.022.188.037.158.028.377.063.624.086.469.043 1.137.057 1.66-.166l-.39-.92zm-1.547 1.052c-.127-.78-.165-1.594-.267-2.549-.099-.929-.256-1.93-.62-2.957-.74-2.078-2.306-4.175-5.774-6.066l-.479.878c3.285 1.79 4.664 3.71 5.31 5.524.327.919.474 1.831.57 2.728.092.87.141 1.792.273 2.603l.987-.161zM10.831 1.924l.904 5.19.985-.172-.904-5.19-.985.172zm2.185 6.456l5.272.89.166-.987-5.271-.89-.167.987zm5.272 1.976l-5.272.89.167.986 5.271-.89-.166-.986zm-6.553 2.155l-.904 5.19.985.172.904-5.19-.985-.172zm-2.024 5.19l-.904-5.19-.985.172.904 5.19.985-.172zm-2.186-6.455l-5.271-.89-.167.986 5.272.89.166-.986zM2.254 9.269l5.271-.89-.166-.985-5.272.89.167.985zm6.553-2.155l.904-5.19-.985-.171-.904 5.19.985.17zM7.525 8.38a1.56 1.56 0 0 0 1.282-1.266l-.985-.172a.56.56 0 0 1-.463.452l.166.986zm-5.271 1.976c-.628-.106-.628-.98 0-1.087l-.167-.986c-1.739.294-1.739 2.765 0 3.059l.167-.986zm6.553 2.155a1.56 1.56 0 0 0-1.282-1.265l-.166.986a.56.56 0 0 1 .463.45l.985-.17zm2.024 5.19c-.107.613-1.013.613-1.12 0l-.985.172c.299 1.717 2.79 1.717 3.09 0l-.985-.172zm2.185-6.455a1.56 1.56 0 0 0-1.281 1.265l.985.172a.56.56 0 0 1 .463-.451l-.167-.986zm5.272-1.977c.628.106.628.98 0 1.087l.166.986c1.74-.294 1.74-2.765 0-3.059l-.166.986zm-6.553-2.155a1.56 1.56 0 0 0 1.281 1.266l.167-.986a.56.56 0 0 1-.463-.452l-.985.172zm.081-5.361c-.3-1.717-2.791-1.717-3.09 0l.985.171c.107-.612 1.013-.612 1.12 0l.985-.171zM53.94 6.659v2.317h1V6.659h-1zm-.676 3.033H50.85v1h2.413v-1zm2.353 1h2.354v-1h-2.354v1zm-1.676.6v2.375h1v-2.374h-1zM4.105 33.291v2.317h1V33.29h-1zm-.677 3.033H1.016v1h2.412v-1zm2.354 1h2.353v-1H5.782v1zm-1.677.6V40.3h1v-2.374h-1zm-3.09 14.79h64.787v-1H1.016v1z"/></svg>
